X:63
T:Living in Sin
C:John Kirkpatrick
R:jig
M:6/8
L:1/8
K:D
A | DFA def | Ace gab | aba def | gec AGE |
DFA def | Ace gab | aba def | gec d2 ::
a | aAa agf | gAg gfe | fAf fed | eAA A2f/g/ |
aAa agf | gAg gfe | aba def | gec d2 :|
